X: 11092
T: the LAST ROSE OF SUMMER
C:
%R: waltz
N: This is version 2, for ABC software that understands voice overlays.
B: Elias Howe "The Musician's Companion" Part 1 1842 p.109 #2
S: http://imslp.org/wiki/The_Musician's_Companion_(Howe,_Elias)
Z: 2015 John Chambers <jc:trillian.mit.edu>
M: C
L: 1/16
K: C
% - - - - - - - - - - - - - - - - - - - - - - - - -
V: 1 staves=2
[g3e3][fd] |\
[e4c4] [c'4e4] [b3g3]a | ([ge][e3c3][e2c2])z2 [c3E3][dF] |\
[e4G4] ({g}[f2A2][e2G2]) {e}[d3F3][cE] | [c8E8] [c3E3][dF] |\
(e2g2 d'2c'2 b2c'a) & G4 z4 F4 | ([gE][e3C3] [e2C2])z2 [c3E3][dF] |\
([e2G2][g2_B2]) ({g}[f2A2][e2G2]) {e}[d3F2][cE] | [c8E8][g3e3][ec] |
[c'4e4] [c'3e3][bg] {b}[a3f3][ge] | ([g4e4] [e4c4]) [g3e3][ec] |\
[c'4e4] [c'2e2][b2d2][a2c2][^g2B2] | {^g}[a8c8] [=g3e3][fd] |\
([ec4]c3) ([c'3e3][e'c'] [d'b]c'[bg])[af] | ([ge][e3c3] [e2c2])z2 [c3G3][dB] |\
[e2c2]{g}[f2A2] [e4G4] {fe}HT[d3F3][cE] |H[c8E8] |]
% - - - - - - - - - - - - - - - - - - - - - - - - -
V: 2 clef=bass middle=d
z4 |\
c'8 c'4 | c'8 z4 | c'8 g4 | c8 z4 |\
c'4 z4 c'4 | c8 z4 | c'8 g4 | c8 z4 |
c8 c'4 | c8 z4 | c4 c2d2e2E2 | A8 z4 |\
c6 c2 c'2c'2 | c8 e3d | c2f2 g4 HG4 | Hc8 |]
% - - - - - - - - - - - - - - - - - - - - - - - - -
